X: 30331
T: Old Monaghan Twig, The
R: reel
M: 4/4
K: Amixolydian
cA (3Bcd cAGB|Ad~d2 e2ed|cA (3Bcd caag|efge d2ed|
cA (3Bcd cAGB|Ad~d2 efed|cA (3Bcd caag|efge d2 (3Bcd||
eaag deed|(3Bcd ef ~g2fg|eaag efge|afge d3g|
eaag deed|(3Bcd ef g2fg|ea~a2 ea~a2|g2ge deed||

